X: 24541
T: Luke And Finn
R: polka
M: 2/4
K: Gmajor
gf ed|Bd ed|gf ed|Bd A2|
gf ed|Bd ed|gB dB|AG G2:|
dB GA|Bd ed|g/a/g ed|Bd A2|
dB GA|Bd ed|gB dB|AG G2:|

